SVG/bicycle.svg

<?xml version="1.0" encoding="utf-8"?>
<!-- Generated by IcoMoon.io -->
<!DOCTYPE svg PUBLIC "-//W3C//DTD SVG 1.1//EN" "http://www.w3.org/Graphics/SVG/1.1/DTD/svg11.dtd">
<svg version="1.1" xmlns="http://www.w3.org/2000/svg" xmlns:xlink="http://www.w3.org/1999/xlink" width="18" height="14" viewBox="0 0 18 14">
<path fill="#444444" d="M5.953 9h-2.453q-0.312 0-0.449-0.273t0.051-0.523l1.469-1.961q-0.508-0.242-1.070-0.242-1.031 0-1.766 0.734t-0.734 1.766 0.734 1.766 1.766 0.734q0.898 0 1.586-0.566t0.867-1.434zM4.5 8h1.453q-0.141-0.664-0.586-1.156zM8.25 8l2.25-3h-3.75l-0.773 1.031q0.82 0.805 0.984 1.969h1.289zM17 8.5q0-1.031-0.734-1.766t-1.766-0.734q-0.469 0-0.945 0.187l1.359 2.031q0.117 0.18 0.078 0.383t-0.211 0.312q-0.117 0.086-0.281 0.086-0.273 0-0.414-0.227l-1.359-2.031q-0.727 0.742-0.727 1.758 0 1.031 0.734 1.766t1.766 0.734 1.766-0.734 0.734-1.766zM18 8.5q0 1.445-1.027 2.473t-2.473 1.027-2.473-1.027-1.027-2.473q0-0.758 0.309-1.434t0.855-1.168l-0.508-0.766-2.758 3.664q-0.141 0.203-0.398 0.203h-1.539q-0.18 1.281-1.164 2.141t-2.297 0.859q-1.445 0-2.473-1.027t-1.027-2.473 1.027-2.473 2.473-1.027q0.891 0 1.68 0.43l1.070-1.43h-1.75q-0.203 0-0.352-0.148t-0.148-0.352 0.148-0.352 0.352-0.148h3v1h3.398l-0.664-1h-1.734q-0.203 0-0.352-0.148t-0.148-0.352 0.148-0.352 0.352-0.148h2q0.258 0 0.414 0.219l2.086 3.125q0.711-0.344 1.5-0.344 1.445 0 2.473 1.027t1.027 2.473z"></path>
</svg>

<svg xmlns="http://www.w3.org/2000/svg" viewBox="0 0 18 14"><path d="M5.953 9H3.5q-.312 0-.45-.273t.052-.523l1.47-1.96Q4.06 6 3.5 6q-1.032 0-1.767.735T1 8.5t.735 1.767T3.5 11q.9 0 1.587-.565T5.954 9zM4.5 8h1.453q-.14-.664-.586-1.156zm3.75 0l2.25-3H6.75l-.773 1.03q.82.806.984 1.97h1.29zm8.75.5q0-1.03-.734-1.766T14.5 6q-.47 0-.945.187l1.36 2.03q.116.18.077.384t-.21.314Q14.662 9 14.5 9q-.273 0-.414-.228l-1.36-2.03Q12 7.48 12 8.498q0 1.03.734 1.765T14.5 11t1.766-.735T17 8.5zm1 0q0 1.445-1.027 2.473T14.5 12t-2.473-1.027T11 8.5q0-.758.31-1.434t.854-1.168l-.508-.766-2.758 3.664Q8.758 9 8.5 9H6.96q-.18 1.28-1.163 2.14T3.5 12q-1.445 0-2.473-1.028T0 8.5t1.027-2.474T3.5 5q.89 0 1.68.43L6.25 4H4.5q-.203 0-.352-.15T4 3.5t.148-.353T4.5 3h3v1h3.398l-.664-1H8.5q-.203 0-.352-.15T8 2.5t.148-.353T8.5 2h2q.258 0 .414.218L13 5.343Q13.71 5 14.5 5q1.445 0 2.473 1.026T18 8.5z" /></svg>
